flags/ca.svg

<?xml version="1.0" encoding="UTF-8" standalone="no"?>
<svg
	xmlns:svg="http://www.w3.org/2000/svg"
	xmlns="http://www.w3.org/2000/svg"
	version="1.0"
	width="1200"
	height="600"
	viewBox="0 0 6400 3200">
<path	d="M 0,0 L 0,3200 L 6400,3200 L 6400,0 L 0,0 z"
	fill="red"/>
<rect	width="3200"
	height="3200"
	x="1600"
	fill="#fff"/>
<path	d="M 3199.9526,290 L 2990.3615,698.71 C 2966.579,743.13 2923.9678,739.01 2881.3566,714.2 L 2729.6183,632.05 L 2842.7112,1259.82 C 2866.4938,1374.51 2790.1887,1374.51 2752.5317,1324.92 L 2487.7189,1014.97 L 2444.727,1172.37 C 2439.7693,1193.04 2417.971,1214.75 2385.2685,1209.58 L 2050.4097,1135.97 L 2138.3625,1470.29 C 2157.1909,1544.68 2171.8774,1575.48 2119.3545,1595.1 L 2000,1653.75 L 2576.4379,2143.29 C 2599.2536,2161.8 2610.7811,2195.11 2602.6585,2225.27 L 2552.2079,2398.37 C 2750.684,2374.45 2928.6267,2353.04 3127.0983,2329.15 C 3144.7336,2328.92 3173.9762,2344.59 3173.8558,2365.83 L 3147.5581,3000 L 3244.0581,3000 L 3228.8679,2367.19 C 3228.7474,2345.95 3255.2663,2328.92 3272.9016,2329.15 C 3471.3732,2353.04 3649.3161,2374.45 3847.7922,2398.37 L 3797.3417,2225.27 C 3789.2191,2195.11 3800.7465,2161.8 3823.5622,2143.29 L 4400,1653.75 L 4280.6456,1595.1 C 4228.1226,1575.48 4242.8092,1544.68 4261.6375,1470.29 L 4349.5905,1135.97 L 4014.7315,1209.58 C 3982.029,1214.75 3960.2307,1193.04 3955.2729,1172.37 L 3912.281,1014.97 L 3647.4683,1324.92 C 3609.8112,1374.51 3533.5061,1374.51 3557.2887,1259.82 L 3670.3814,632.05 L 3518.6434,714.2 C 3476.0311,739.01 3433.421,743.13 3409.6384,698.71"
	fill="red"
	id="maple_leaf"/>
</svg>

<svg xmlns="http://www.w3.org/2000/svg" width="1200" height="600" version="1.0" viewBox="0 0 6400 3200"><path fill="red" d="M0 0v3200h6400V0z"/><path fill="#fff" d="M1600 0h3200v3200H1600z"/><path fill="red" d="m3199.953 290-209.591 408.71c-23.783 44.42-66.394 40.3-109.005 15.49l-151.739-82.15 113.093 627.77c23.783 114.69-52.522 114.69-90.18 65.1l-264.812-309.95-42.992 157.4c-4.958 20.67-26.756 42.38-59.458 37.21l-334.86-73.61 87.954 334.32c18.828 74.39 33.514 105.19-19.008 124.81L2000 1653.75l576.438 489.54c22.816 18.51 34.343 51.82 26.22 81.98l-50.45 173.1c198.476-23.92 376.419-45.33 574.89-69.22 17.636-.23 46.878 15.44 46.758 36.68L3147.558 3000h96.5l-15.19-632.81c-.12-21.24 26.398-38.27 44.034-38.04 198.471 23.89 376.414 45.3 574.89 69.22l-50.45-173.1c-8.123-30.16 3.405-63.47 26.22-81.98L4400 1653.75l-119.354-58.65c-52.523-19.62-37.837-50.42-19.008-124.81l87.953-334.32-334.86 73.61c-32.702 5.17-54.5-16.54-59.458-37.21l-42.992-157.4-264.813 309.95c-37.657 49.59-113.962 49.59-90.18-65.1l113.093-627.77-151.738 82.15c-42.612 24.81-85.222 28.93-109.005-15.49"/></svg>
